src/components/icon/instagram-media.svg

<svg xmlns="http://www.w3.org/2000/svg" width="16" height="16" viewBox="0 0 40 40">
<path d="M9,0 C6.555,0 6.24975,0.01125 5.28975,0.054 C4.33125,0.099 3.67875,0.24975 3.105,0.4725 C2.51325,0.702 2.01075,1.01025 1.5105,1.5105 C1.01025,2.01075 0.70125,2.5125 0.4725,3.105 C0.24975,3.67875 0.09825,4.33125 0.054,5.28975 C0.009,6.24975 0,6.555 0,9 C0,11.445 0.01125,11.75025 0.054,12.71025 C0.099,13.668 0.24975,14.32125 0.4725,14.895 C0.702,15.486 1.01025,15.98925 1.5105,16.4895 C2.01075,16.989 2.5125,17.29875 3.105,17.5275 C3.6795,17.7495 4.332,17.90175 5.28975,17.946 C6.24975,17.991 6.555,18 9,18 C11.445,18 11.75025,17.98875 12.71025,17.946 C13.668,17.901 14.32125,17.7495 14.895,17.5275 C15.486,17.298 15.98925,16.989 16.4895,16.4895 C16.989,15.98925 17.29875,15.48825 17.5275,14.895 C17.7495,14.32125 17.90175,13.668 17.946,12.71025 C17.991,11.75025 18,11.445 18,9 C18,6.555 17.98875,6.24975 17.946,5.28975 C17.901,4.332 17.7495,3.678 17.5275,3.105 C17.298,2.51325 16.989,2.01075 16.4895,1.5105 C15.98925,1.01025 15.48825,0.70125 14.895,0.4725 C14.32125,0.24975 13.668,0.09825 12.71025,0.054 C11.75025,0.009 11.445,0 9,0 Z M9,1.62 C11.40225,1.62 11.68875,1.632 12.6375,1.67325 C13.515,1.7145 13.99125,1.86 14.30775,1.9845 C14.72925,2.14725 15.02775,2.34225 15.34425,2.6565 C15.6585,2.9715 15.8535,3.27075 16.01625,3.69225 C16.13925,4.00875 16.28625,4.485 16.326,5.3625 C16.36875,6.312 16.3785,6.597 16.3785,9 C16.3785,11.403 16.36725,11.68875 16.323,12.6375 C16.27725,13.515 16.131,13.99125 16.00725,14.30775 C15.83925,14.72925 15.648,15.02775 15.333,15.34425 C15.01875,15.6585 14.715,15.8535 14.298,16.01625 C13.983,16.13925 13.49925,16.28625 12.62175,16.326 C11.66625,16.36875 11.385,16.3785 8.9775,16.3785 C6.56925,16.3785 6.288,16.36725 5.33325,16.323 C4.455,16.27725 3.97125,16.131 3.65625,16.00725 C3.2295,15.83925 2.93625,15.648 2.622,15.333 C2.30625,15.01875 2.1045,14.715 1.947,14.298 C1.82325,13.983 1.67775,13.49925 1.632,12.62175 C1.59825,11.67675 1.58625,11.385 1.58625,8.98875 C1.58625,6.59175 1.59825,6.29925 1.632,5.343 C1.67775,4.4655 1.82325,3.9825 1.947,3.6675 C2.1045,3.24 2.30625,2.9475 2.622,2.63175 C2.93625,2.3175 3.2295,2.115 3.65625,1.95825 C3.97125,1.83375 4.4445,1.6875 5.322,1.6425 C6.27825,1.60875 6.5595,1.5975 8.96625,1.5975 L9,1.62 Z M9,4.3785 C6.44625,4.3785 4.3785,6.4485 4.3785,9 C4.3785,11.55375 6.4485,13.6215 9,13.6215 C11.55375,13.6215 13.6215,11.5515 13.6215,9 C13.6215,6.44625 11.5515,4.3785 9,4.3785 Z M9,12 C7.3425,12 6,10.6575 6,9 C6,7.3425 7.3425,6 9,6 C10.6575,6 12,7.3425 12,9 C12,10.6575 10.6575,12 9,12 Z M14.8845,4.19625 C14.8845,4.7925 14.4,5.27625 13.8045,5.27625 C13.20825,5.27625 12.7245,4.79175 12.7245,4.19625 C12.7245,3.60075 13.209,3.117 13.8045,3.117 C14.39925,3.11625 14.8845,3.60075 14.8845,4.19625 Z M38,32.3652148 L38,15 C38,14.4477153 37.5522847,14 37,14 L22,14 C21.4477153,14 21,13.5522847 21,13 C21,12.4477153 21.4477153,12 22,12 L37,12 C38.6568542,12 40,13.3431458 40,15 L40,37 C40,38.6568542 38.6568542,40 37,40 L11,40 C9.34314575,40 8,38.6568542 8,37 L8,22.0452881 C8,21.4477153 8.44771525,21 9,21 C9.55228475,21 10,21.4477153 10,22 L10,30.0077066 L15.831825,25.2806776 C16.7563315,24.5055235 18.1193105,24.5629794 18.9753004,25.4131896 L24.5809664,30.9810062 L29.794449,28.8544591 C30.4204151,28.5991315 31.1263502,28.6278432 31.7580697,28.9482006 L38,32.3652148 Z M38,34.6452472 L30.826253,30.7175722 C30.7400868,30.6739553 30.6392389,30.6698536 30.5498152,30.706329 L24.110696,33.3328056 L17.5658855,26.8321856 C17.4436012,26.710727 17.2488899,26.702519 17.1040156,26.8238095 L10,32.582191 L10,37 C10,37.5522847 10.4477153,38 11,38 L37,38 C37.5522847,38 38,37.5522847 38,37 L38,34.6452472 Z M30,26 C27.2385763,26 25,23.7614237 25,21 C25,18.2385763 27.2385763,16 30,16 C32.7614237,16 35,18.2385763 35,21 C35,23.7614237 32.7614237,26 30,26 Z M30,24 C31.6568542,24 33,22.6568542 33,21 C33,19.3431458 31.6568542,18 30,18 C28.3431458,18 27,19.3431458 27,21 C27,22.6568542 28.3431458,24 30,24 Z"/>
</svg>

<svg xmlns="http://www.w3.org/2000/svg" width="16" height="16" viewBox="0 0 40 40"><path d="M9 0C6.555 0 6.25.011 5.29.054 4.33.099 3.679.25 3.105.472A4.407 4.407 0 0 0 1.51 1.51c-.5.5-.809 1.003-1.038 1.595C.25 3.679.098 4.331.054 5.29.009 6.25 0 6.555 0 9c0 2.445.011 2.75.054 3.71.045.958.196 1.611.418 2.185.23.591.538 1.094 1.038 1.595.5.499 1.003.809 1.595 1.038.575.222 1.227.374 2.185.418.96.045 1.265.054 3.71.054 2.445 0 2.75-.011 3.71-.054.958-.045 1.611-.197 2.185-.419a4.424 4.424 0 0 0 1.595-1.038c.499-.5.809-1 1.038-1.594.222-.574.374-1.227.418-2.185.045-.96.054-1.265.054-3.71 0-2.445-.011-2.75-.054-3.71-.045-.958-.197-1.612-.419-2.185A4.417 4.417 0 0 0 16.49 1.51c-.5-.5-1-.809-1.594-1.038C14.321.25 13.668.098 12.71.054 11.75.009 11.445 0 9 0zm0 1.62c2.402 0 2.689.012 3.637.053.878.041 1.354.187 1.67.311.422.163.72.358 1.037.672.315.315.51.615.672 1.036.123.317.27.793.31 1.67.043.95.052 1.235.052 3.638 0 2.403-.01 2.689-.055 3.637-.046.878-.192 1.354-.316 1.67-.168.422-.359.72-.674 1.037-.314.315-.618.51-1.035.672-.315.123-.799.27-1.676.31-.956.043-1.237.052-3.645.052s-2.689-.01-3.644-.055c-.878-.046-1.362-.192-1.677-.316a2.787 2.787 0 0 1-1.034-.674 2.733 2.733 0 0 1-.675-1.035c-.124-.315-.27-.799-.315-1.676-.034-.945-.046-1.237-.046-3.633 0-2.397.012-2.69.046-3.646.046-.878.191-1.36.315-1.675.157-.428.36-.72.675-1.036a2.662 2.662 0 0 1 1.034-.674c.315-.124.788-.27 1.666-.315.956-.034 1.237-.046 3.644-.046L9 1.62zm0 2.758a4.621 4.621 0 1 0 0 9.243 4.621 4.621 0 0 0 0-9.243zM9 12a3 3 0 1 1 0-6 3 3 0 1 1 0 6zm5.884-7.804a1.08 1.08 0 0 1-2.16 0 1.08 1.08 0 0 1 2.16 0zM38 32.366V15a1 1 0 0 0-1-1H22a1 1 0 0 1 0-2h15a3 3 0 0 1 3 3v22a3 3 0 0 1-3 3H11a3 3 0 0 1-3-3V22.045C8 21.448 8.448 21 9 21a1 1 0 0 1 1 1v8.008l5.832-4.727a2.333 2.333 0 0 1 3.143.132l5.606 5.568 5.213-2.127a2.349 2.349 0 0 1 1.964.094L38 32.365zm0 2.28l-7.174-3.928a.333.333 0 0 0-.276-.012l-6.44 2.627-6.544-6.5a.338.338 0 0 0-.462-.01L10 32.584V37a1 1 0 0 0 1 1h26a1 1 0 0 0 1-1v-2.355zM30 26a5 5 0 1 1 0-10 5 5 0 0 1 0 10zm0-2a3 3 0 1 0 0-6 3 3 0 0 0 0 6z"/></svg>
